svgs/pstube.svg

<svg xmlns="http://www.w3.org/2000/svg" viewBox="0 0 400 400"><path d="M73.131 280.42c.239-5.648.894-31.602 1.455-57.675 1.496-69.41 2.451-88.001 4.898-95.322 1.666-4.984 5.009-10.496 8.816-14.539 4.351-4.621 6.312-4.759 13.323-.936 6.07 3.309 25.339 15.773 49.067 31.737 39.857 26.816 42.944 29.634 43.772 39.948l.341 4.248-4.756 4.302c-5.614 5.08-18.542 11.802-57.498 29.896-21.591 10.029-24.41 11.521-24.728 13.086-.197.972-.842 12.648-1.434 25.948-.599 13.46-1.384 24.552-1.771 25.018-.383.461-1.384 1.007-2.224 1.212-1.458.357-14.845 1.906-24.954 2.887l-4.741.46Zm42.061-77.78c8.379-3.654 37.809-18.383 39.939-19.99l1.65-1.245-4.776-2.772c-5.784-3.359-32.319-17.566-40.242-21.547l-5.71-2.868v25.151c0 13.834.208 25.36.462 25.614.846.846 2.199.481 8.677-2.343Zm100.547 90.122c-4.059-1.835-9.493-7.921-10.638-11.913-1.29-4.5 2.806-8.495 23.455-22.874l25.325-17.632c8.013-5.579 15.319-10.941 16.234-11.915 1.529-1.628 1.583-1.906.655-3.416-.555-.904-8.867-10.356-18.472-21.004-21.754-24.12-26.837-30.005-28.213-32.666-.982-1.898-.984-2.322-.024-4.338 1.308-2.748 8.684-10.572 12.725-13.5 1.808-1.309 4.259-2.344 6.215-2.624 1.777-.254 3.853-1.015 4.614-1.691 6.199-5.501 67.319-40.176 74.391-42.204 1.292-.371 2.841-.37 3.821.003 2.289.87 7.135 5.369 8.383 7.782.927 1.791.924 2.183-.028 3.635-1.696 2.589-31.034 23.324-57.715 40.791l-11.286 7.388 14.746 15.176c35.093 36.115 42.083 43.566 42.083 44.86 0 2.797-19.127 18.412-36.686 29.951-17.456 11.471-56.493 33.209-65.073 36.236-2.02.713-2.854.705-4.512-.045Z"/></svg>

<svg
    xmlns="http://www.w3.org/2000/svg"
    viewBox="0 0 400 400"
    id="vector">
    <g id="group">
        <path
            id="path"
            d="M 73.131 280.42 C 73.37 274.772 74.025 248.818 74.586 222.745 C 76.082 153.335 77.037 134.744 79.484 127.423 C 81.15 122.439 84.493 116.927 88.3 112.884 C 92.651 108.263 94.612 108.125 101.623 111.948 C 107.693 115.257 126.962 127.721 150.69 143.685 C 190.547 170.501 193.634 173.319 194.462 183.633 L 194.803 187.881 L 190.047 192.183 C 184.433 197.263 171.505 203.985 132.549 222.079 C 110.958 232.108 108.139 233.6 107.821 235.165 C 107.624 236.137 106.979 247.813 106.387 261.113 C 105.788 274.573 105.003 285.665 104.616 286.131 C 104.233 286.592 103.232 287.138 102.392 287.343 C 100.934 287.7 87.547 289.249 77.438 290.23 L 72.697 290.69 Z M 115.192 202.64 C 123.571 198.986 153.001 184.257 155.131 182.65 L 156.781 181.405 L 152.005 178.633 C 146.221 175.274 119.686 161.067 111.763 157.086 L 106.053 154.218 L 106.053 179.369 C 106.053 193.203 106.261 204.729 106.515 204.983 C 107.361 205.829 108.714 205.464 115.192 202.64 Z M 215.739 292.762 C 211.68 290.927 206.246 284.841 205.101 280.849 C 203.811 276.349 207.907 272.354 228.556 257.975 C 234.471 253.856 245.867 245.922 253.881 240.343 C 261.894 234.764 269.2 229.402 270.115 228.428 C 271.644 226.8 271.698 226.522 270.77 225.012 C 270.215 224.108 261.903 214.656 252.298 204.008 C 230.544 179.888 225.461 174.003 224.085 171.342 C 223.103 169.444 223.101 169.02 224.061 167.004 C 225.369 164.256 232.745 156.432 236.786 153.504 C 238.594 152.195 241.045 151.16 243.001 150.88 C 244.778 150.626 246.854 149.865 247.615 149.189 C 253.814 143.688 314.934 109.013 322.006 106.985 C 323.298 106.614 324.847 106.615 325.827 106.988 C 328.116 107.858 332.962 112.357 334.21 114.77 C 335.137 116.561 335.134 116.953 334.182 118.405 C 332.486 120.994 303.148 141.729 276.467 159.196 L 265.181 166.584 L 279.927 181.76 C 315.02 217.875 322.01 225.326 322.01 226.62 C 322.01 229.417 302.883 245.032 285.324 256.571 C 267.868 268.042 228.831 289.78 220.251 292.807 C 218.231 293.52 217.397 293.512 215.739 292.762 Z"
            fill="#000000"
            stroke-width="2"/>
    </g>
</svg>
